motion_sense.svg

<?xml version="1.0" encoding="UTF-8" standalone="no"?><!DOCTYPE svg PUBLIC "-//W3C//DTD SVG 1.1//EN" "http://www.w3.org/Graphics/SVG/1.1/DTD/svg11.dtd"><svg width="100%" height="100%" viewBox="0 0 1400 793" version="1.1" xmlns="http://www.w3.org/2000/svg" xmlns:xlink="http://www.w3.org/1999/xlink" xml:space="preserve" xmlns:serif="http://www.serif.com/" style="fill-rule:evenodd;clip-rule:evenodd;stroke-linejoin:round;stroke-miterlimit:1.41421;"><g><path d="M6.25,146.503l70.727,-0l58.486,113.571l57.126,-113.571l70.727,-0l0,233.944l-70.727,-0l0,-124.793l-43.184,81.608l-28.903,0l-43.525,-81.608l0,124.793l-70.727,-0l-0,-233.944Z" style="fill:none;fill-rule:nonzero;stroke:#000;stroke-width:12.5px;"/><path d="M643.036,198.188l-48.625,-0l-0,-51.685l176.478,-0l-0,51.685l-48.625,-0l-0,182.259l-79.228,-0l-0,-182.259Z" style="fill:none;fill-rule:nonzero;stroke:#000;stroke-width:12.5px;"/><rect x="794.291" y="146.503" width="78.548" height="233.944" style="fill:none;fill-rule:nonzero;stroke:#000;stroke-width:12.5px;"/><path d="M1022.05,385.887c-24.482,0 -46.188,-5.214 -65.117,-15.641c-18.928,-10.428 -33.663,-24.88 -44.204,-43.355c-10.541,-18.475 -15.812,-39.501 -15.812,-63.076c0,-23.803 5.271,-44.998 15.812,-63.587c10.541,-18.588 25.276,-33.04 44.204,-43.354c18.929,-10.315 40.635,-15.472 65.117,-15.472c24.483,0 46.188,5.157 65.117,15.472c18.928,10.314 33.663,24.709 44.204,43.184c10.541,18.475 15.812,39.728 15.812,63.757c-0,23.575 -5.271,44.601 -15.812,63.076c-10.541,18.475 -25.332,32.927 -44.374,43.355c-19.042,10.427 -40.691,15.641 -64.947,15.641Zm0,-61.886c14.282,-0 26.013,-5.554 35.194,-16.662c9.181,-11.108 13.771,-25.729 13.771,-43.864c0,-12.015 -2.097,-22.726 -6.291,-32.134c-4.193,-9.407 -10.031,-16.775 -17.511,-22.102c-7.481,-5.327 -15.982,-7.991 -25.503,-7.991c-9.294,0 -17.682,2.664 -25.162,7.991c-7.481,5.327 -13.262,12.695 -17.342,22.102c-4.081,9.408 -6.121,20.119 -6.121,32.134c0,18.135 4.534,32.756 13.601,43.864c9.068,11.108 20.856,16.662 35.364,16.662Z" style="fill:none;fill-rule:nonzero;stroke:#000;stroke-width:12.5px;"/><path d="M1171.27,146.503l68.347,-0l93.17,126.153l-0,-126.153l60.866,-0l0,233.944l-68.007,-0l-93.85,-121.733l0,121.733l-60.526,-0l0,-233.944Z" style="fill:none;fill-rule:nonzero;stroke:#000;stroke-width:12.5px;"/></g><path d="M805.963,108.848l-4.995,-8.182c-0,0 9.029,-16.651 31.5,-15.59c11.334,0.534 21.093,6.626 27.097,15.287l-5.057,8.391c-5.82,-5.419 -13.486,-8.931 -22.04,-9.458c-10.171,-0.627 -19.614,3.087 -26.505,9.552Z"/><g><g><path d="M239.319,738.694c-31.963,-0 -58.939,-5.894 -80.928,-17.682l17.002,-52.705c23.349,8.387 44.204,12.581 62.566,12.581c9.974,0 17.285,-1.19 21.932,-3.57c4.647,-2.381 6.971,-5.951 6.971,-10.711c-0,-3.174 -1.247,-5.951 -3.74,-8.331c-2.494,-2.381 -7.481,-5.044 -14.962,-7.991c-7.481,-2.947 -18.702,-6.574 -33.663,-10.881c-18.362,-5.441 -32.644,-14.338 -42.845,-26.693c-10.201,-12.355 -15.301,-26.579 -15.301,-42.674c-0,-24.936 8.217,-43.808 24.652,-56.616c16.435,-12.808 38.594,-19.212 66.477,-19.212c14.508,-0 28.79,1.53 42.844,4.59c14.055,3.061 26.523,7.538 37.404,13.432l-18.362,51.345c-12.694,-4.307 -23.745,-7.424 -33.153,-9.351c-9.408,-1.927 -18.532,-2.89 -27.373,-2.89c-14.961,-0 -22.442,4.08 -22.442,12.241c-0,4.08 2.437,7.537 7.311,10.371c4.873,2.834 14.904,6.404 30.093,10.711c23.802,6.347 41.824,16.038 54.065,29.073c12.241,13.035 18.362,28.62 18.362,46.755c0,25.163 -8.161,44.488 -24.482,57.976c-16.322,13.488 -40.465,20.232 -72.428,20.232Z" style="fill:none;fill-rule:nonzero;stroke:#000;stroke-width:12.5px;"/><path d="M368.192,499.309l164.237,0l0,51.686l-81.608,-0l-0,42.504l74.467,0l0,42.844l-74.467,0l-0,45.225l81.608,0l0,51.685l-164.237,0l0,-233.944Z" style="fill:none;fill-rule:nonzero;stroke:#000;stroke-width:12.5px;"/></g><g><path d="M958.937,738.224c-31.963,0 -58.939,-5.894 -80.928,-17.681l17.002,-52.706c23.349,8.388 44.204,12.581 62.566,12.581c9.975,0 17.285,-1.19 21.933,-3.57c4.647,-2.38 6.97,-5.951 6.97,-10.711c0,-3.174 -1.246,-5.951 -3.74,-8.331c-2.494,-2.38 -7.481,-5.044 -14.962,-7.991c-7.48,-2.947 -18.702,-6.574 -33.663,-10.881c-18.362,-5.44 -32.643,-14.338 -42.844,-26.693c-10.201,-12.354 -15.302,-26.579 -15.302,-42.674c0,-24.936 8.218,-43.808 24.653,-56.616c16.435,-12.808 38.593,-19.212 66.476,-19.212c14.508,0 28.79,1.53 42.845,4.591c14.054,3.06 26.522,7.537 37.404,13.431l-18.362,51.345c-12.695,-4.307 -23.746,-7.424 -33.154,-9.351c-9.407,-1.926 -18.532,-2.89 -27.373,-2.89c-14.961,0 -22.442,4.081 -22.442,12.241c0,4.081 2.437,7.538 7.311,10.371c4.874,2.834 14.905,6.404 30.093,10.712c23.802,6.347 41.824,16.038 54.066,29.073c12.241,13.034 18.361,28.619 18.361,46.754c0,25.163 -8.16,44.488 -24.482,57.976c-16.322,13.488 -40.464,20.232 -72.428,20.232Z" style="fill:none;fill-rule:nonzero;stroke:#000;stroke-width:12.5px;"/><path d="M1087.59,500.519l164.236,0l0,51.686l-81.608,-0l-0,42.504l74.468,-0l-0,42.844l-74.468,0l-0,45.225l81.608,-0l0,51.685l-164.236,0l-0,-233.944Z" style="fill:none;fill-rule:nonzero;stroke:#000;stroke-width:12.5px;"/></g></g><g><path d="M320.52,212.303c0,-5.834 -4.736,-10.571 -10.57,-10.571l-15.672,0c-5.834,0 -10.57,4.737 -10.57,10.571c-0,5.834 4.736,10.57 10.57,10.57l15.672,0c5.834,0 10.57,-4.736 10.57,-10.57Z"/><path d="M305.134,250.582c0,-5.834 -4.736,-10.57 -10.57,-10.57l-4.538,-0c-5.834,-0 -10.57,4.736 -10.57,10.57c-0,5.834 4.736,10.571 10.57,10.571l4.538,-0c5.834,-0 10.57,-4.737 10.57,-10.571Z"/><path d="M312.684,275.592l43.448,-0c4.357,-0 7.894,-3.538 7.894,-7.895c0,-4.357 -3.537,-7.894 -7.894,-7.894l-33.065,-0c-5.834,-0 -10.57,-4.737 -10.57,-10.571c-0,-5.834 4.736,-10.57 10.57,-10.57l45.027,-0c4.357,-0 7.894,-3.538 7.894,-7.895c0,-4.357 -3.537,-7.894 -7.894,-7.894l-25.208,0c-5.834,0 -10.571,-4.736 -10.571,-10.57c0,-5.834 4.737,-10.571 10.571,-10.571l24.033,0c0.276,-0.503 0.555,-1.004 0.839,-1.504c10.541,-18.588 25.275,-33.04 44.204,-43.354c18.929,-10.315 40.634,-15.472 65.117,-15.472c24.482,0 46.188,5.157 65.116,15.472c18.929,10.314 33.664,24.709 44.205,43.184c10.541,18.475 15.812,39.728 15.812,63.757c-0,23.575 -5.271,44.601 -15.812,63.076c-10.541,18.475 -25.333,32.927 -44.375,43.355c-19.042,10.427 -40.69,15.641 -64.946,15.641c-24.483,0 -46.188,-5.214 -65.117,-15.641c-18.929,-10.428 -33.663,-24.88 -44.204,-43.355c-5.365,-9.402 -9.364,-19.465 -11.999,-30.188c-0.262,0.019 -0.526,0.029 -0.793,0.029l-42.282,0c-5.834,0 -10.57,-4.736 -10.57,-10.57c-0,-5.834 4.736,-10.57 10.57,-10.57Zm106.248,0.629c-4.358,0 -7.894,3.538 -7.894,7.894c-0,4.357 3.537,7.895 7.894,7.895l13.463,-0c0.164,-0 0.327,-0.005 0.488,-0.015c2.19,5.699 5.134,10.814 8.832,15.344c9.068,11.108 20.856,16.662 35.364,16.662c14.281,-0 26.012,-5.554 35.193,-16.662c9.181,-11.108 13.772,-25.729 13.772,-43.864c-0,-12.015 -2.097,-22.726 -6.291,-32.134c-4.194,-9.407 -10.031,-16.775 -17.512,-22.102c-7.48,-5.327 -15.981,-7.991 -25.502,-7.991c-2.353,0 -4.648,0.171 -6.884,0.512c-0.221,-0.018 -0.444,-0.028 -0.671,-0.028l-65.504,0c-4.358,0.001 -7.895,3.538 -7.895,7.895c0,4.356 3.537,7.894 7.895,7.894l38.954,0c-3.327,3.974 -6.127,8.581 -8.4,13.82c-1.614,3.721 -2.908,7.646 -3.884,11.776l-19.12,0c-4.358,0.001 -7.894,3.538 -7.894,7.894c-0,4.357 3.536,7.894 7.894,7.895l16.985,-0c-0.068,1.502 -0.101,3.024 -0.101,4.569c-0,4.461 0.274,8.709 0.823,12.746l-10.005,-0Z"/></g><path d="M779.284,53.813l-10.481,-17.164c0,-0 18.942,-34.931 66.082,-32.707c23.776,1.122 44.249,13.901 56.844,32.07l-10.607,17.603c-12.21,-11.369 -28.292,-18.735 -46.237,-19.841c-21.336,-1.316 -41.146,6.476 -55.601,20.039Z"/><path d="M793.576,85.027l-7.542,-12.352c0,-0 13.632,-25.138 47.556,-23.538c17.111,0.808 31.844,10.004 40.908,23.08l-7.633,12.667c-8.787,-8.181 -20.361,-13.482 -33.275,-14.278c-15.355,-0.947 -29.611,4.66 -40.014,14.421Z"/><path d="M666.653,686.84l36.403,-125.837l89.625,118.956l34.073,-182.126l37.741,50.745l-7.807,41.36l0.099,-0.024l-36.731,202.924l-98.667,-129.806l-19.94,68.925l0.004,0.736l-0.217,0.001l-0.002,0.008l-47.913,0.222l-86.783,0.019l-0.221,-46.019l100.336,-0.084Z"/></svg>

<?xml version="1.0" encoding="UTF-8" standalone="no"?>
<!DOCTYPE svg PUBLIC "-//W3C//DTD SVG 1.1//EN" "http://www.w3.org/Graphics/SVG/1.1/DTD/svg11.dtd">
<svg width="100%" height="100%" viewBox="0 0 1400 793" version="1.1" xmlns="http://www.w3.org/2000/svg" xmlns:xlink="http://www.w3.org/1999/xlink" xml:space="preserve" xmlns:serif="http://www.serif.com/" style="fill-rule:evenodd;clip-rule:evenodd;stroke-linejoin:round;stroke-miterlimit:1.41421;">
    <g>
        <path d="M6.25,146.503L76.977,146.503L135.463,260.074L192.589,146.503L263.316,146.503L263.316,380.447L192.589,380.447L192.589,255.654L149.405,337.262L120.502,337.262L76.977,255.654L76.977,380.447L6.25,380.447L6.25,146.503Z" style="fill:white;fill-rule:nonzero;stroke:black;stroke-width:12.5px;"/>
        <path d="M643.036,198.188L594.411,198.188L594.411,146.503L770.889,146.503L770.889,198.188L722.264,198.188L722.264,380.447L643.036,380.447L643.036,198.188Z" style="fill:white;fill-rule:nonzero;stroke:black;stroke-width:12.5px;"/>
        <rect x="794.291" y="146.503" width="78.548" height="233.944" style="fill:white;stroke:black;stroke-width:12.5px;"/>
        <path d="M1022.05,385.887C997.568,385.887 975.862,380.673 956.933,370.246C938.005,359.818 923.27,345.366 912.729,326.891C902.188,308.416 896.917,287.39 896.917,263.815C896.917,240.012 902.188,218.817 912.729,200.228C923.27,181.64 938.005,167.188 956.933,156.874C975.862,146.559 997.568,141.402 1022.05,141.402C1046.53,141.402 1068.24,146.559 1087.17,156.874C1106.1,167.188 1120.83,181.583 1131.37,200.058C1141.91,218.533 1147.18,239.786 1147.18,263.815C1147.18,287.39 1141.91,308.416 1131.37,326.891C1120.83,345.366 1106.04,359.818 1087,370.246C1067.95,380.673 1046.31,385.887 1022.05,385.887ZM1022.05,324.001C1036.33,324.001 1048.06,318.447 1057.24,307.339C1066.42,296.231 1071.02,281.61 1071.02,263.475C1071.02,251.46 1068.92,240.749 1064.72,231.341C1060.53,221.934 1054.69,214.566 1047.21,209.239C1039.73,203.912 1031.23,201.248 1021.71,201.248C1012.42,201.248 1004.03,203.912 996.548,209.239C989.067,214.566 983.286,221.934 979.206,231.341C975.125,240.749 973.085,251.46 973.085,263.475C973.085,281.61 977.619,296.231 986.686,307.339C995.754,318.447 1007.54,324.001 1022.05,324.001Z" style="fill:white;fill-rule:nonzero;stroke:black;stroke-width:12.5px;"/>
        <path d="M1171.27,146.503L1239.62,146.503L1332.79,272.656L1332.79,146.503L1393.65,146.503L1393.65,380.447L1325.65,380.447L1231.8,258.714L1231.8,380.447L1171.27,380.447L1171.27,146.503Z" style="fill:white;fill-rule:nonzero;stroke:black;stroke-width:12.5px;"/>
    </g>
    <path d="M805.963,108.848L800.968,100.666C800.968,100.666 809.997,84.015 832.468,85.076C843.802,85.61 853.561,91.702 859.565,100.363L854.508,108.754C848.688,103.335 841.022,99.823 832.468,99.296C822.297,98.669 812.854,102.383 805.963,108.848Z" style="stroke:white;stroke-width:1px;stroke-miterlimit:2;"/>
    <g>
        <g>
            <path d="M239.319,738.694C207.356,738.694 180.38,732.8 158.391,721.012L175.393,668.307C198.742,676.694 219.597,680.888 237.959,680.888C247.933,680.888 255.244,679.698 259.891,677.318C264.538,674.937 266.862,671.367 266.862,666.607C266.862,663.433 265.615,660.656 263.122,658.276C260.628,655.895 255.641,653.232 248.16,650.285C240.679,647.338 229.458,643.711 214.497,639.404C196.135,633.963 181.853,625.066 171.652,612.711C161.451,600.356 156.351,586.132 156.351,570.037C156.351,545.101 164.568,526.229 181.003,513.421C197.438,500.613 219.597,494.209 247.48,494.209C261.988,494.209 276.27,495.739 290.324,498.799C304.379,501.86 316.847,506.337 327.728,512.231L309.366,563.576C296.672,559.269 285.621,556.152 276.213,554.225C266.805,552.298 257.681,551.335 248.84,551.335C233.879,551.335 226.398,555.415 226.398,563.576C226.398,567.656 228.835,571.113 233.709,573.947C238.582,576.781 248.613,580.351 263.802,584.658C287.604,591.005 305.626,600.696 317.867,613.731C330.108,626.766 336.229,642.351 336.229,660.486C336.229,685.649 328.068,704.974 311.747,718.462C295.425,731.95 271.282,738.694 239.319,738.694Z" style="fill:white;fill-rule:nonzero;stroke:black;stroke-width:12.5px;"/>
            <path d="M368.192,499.309L532.429,499.309L532.429,550.995L450.821,550.995L450.821,593.499L525.288,593.499L525.288,636.343L450.821,636.343L450.821,681.568L532.429,681.568L532.429,733.253L368.192,733.253L368.192,499.309Z" style="fill:white;fill-rule:nonzero;stroke:black;stroke-width:12.5px;"/>
        </g>
        <g>
            <path d="M958.937,738.224C926.974,738.224 899.998,732.33 878.009,720.543L895.011,667.837C918.36,676.225 939.215,680.418 957.577,680.418C967.552,680.418 974.862,679.228 979.51,676.848C984.157,674.468 986.48,670.897 986.48,666.137C986.48,662.963 985.234,660.186 982.74,657.806C980.246,655.426 975.259,652.762 967.778,649.815C960.298,646.868 949.076,643.241 934.115,638.934C915.753,633.494 901.472,624.596 891.271,612.241C881.07,599.887 875.969,585.662 875.969,569.567C875.969,544.631 884.187,525.759 900.622,512.951C917.057,500.143 939.215,493.739 967.098,493.739C981.606,493.739 995.888,495.269 1009.94,498.33C1024,501.39 1036.46,505.867 1047.35,511.761L1028.99,563.106C1016.29,558.799 1005.24,555.682 995.831,553.755C986.424,551.829 977.299,550.865 968.458,550.865C953.497,550.865 946.016,554.946 946.016,563.106C946.016,567.187 948.453,570.644 953.327,573.477C958.201,576.311 968.232,579.881 983.42,584.189C1007.22,590.536 1025.24,600.227 1037.49,613.262C1049.73,626.296 1055.85,641.881 1055.85,660.016C1055.85,685.179 1047.69,704.504 1031.37,717.992C1015.04,731.48 990.901,738.224 958.937,738.224Z" style="fill:white;fill-rule:nonzero;stroke:black;stroke-width:12.5px;"/>
            <path d="M1087.59,500.519L1251.83,500.519L1251.83,552.205L1170.22,552.205L1170.22,594.709L1244.69,594.709L1244.69,637.553L1170.22,637.553L1170.22,682.778L1251.83,682.778L1251.83,734.463L1087.59,734.463L1087.59,500.519Z" style="fill:white;fill-rule:nonzero;stroke:black;stroke-width:12.5px;"/>
        </g>
    </g>
    <g>
        <path d="M320.52,212.303C320.52,206.469 315.784,201.732 309.95,201.732L294.278,201.732C288.444,201.732 283.708,206.469 283.708,212.303C283.708,218.137 288.444,222.873 294.278,222.873L309.95,222.873C315.784,222.873 320.52,218.137 320.52,212.303Z" style="stroke:white;stroke-width:1px;stroke-miterlimit:2;"/>
        <path d="M305.134,250.582C305.134,244.748 300.398,240.012 294.564,240.012L290.026,240.012C284.192,240.012 279.456,244.748 279.456,250.582C279.456,256.416 284.192,261.153 290.026,261.153L294.564,261.153C300.398,261.153 305.134,256.416 305.134,250.582Z" style="stroke:white;stroke-width:1px;stroke-miterlimit:2;"/>
        <path d="M312.684,275.592L356.132,275.592C360.489,275.592 364.026,272.054 364.026,267.697C364.026,263.34 360.489,259.803 356.132,259.803L323.067,259.803C317.233,259.803 312.497,255.066 312.497,249.232C312.497,243.398 317.233,238.662 323.067,238.662L368.094,238.662C372.451,238.662 375.988,235.124 375.988,230.767C375.988,226.41 372.451,222.873 368.094,222.873L342.886,222.873C337.052,222.873 332.315,218.137 332.315,212.303C332.315,206.469 337.052,201.732 342.886,201.732L366.919,201.732C367.195,201.229 367.474,200.728 367.758,200.228C378.299,181.64 393.033,167.188 411.962,156.874C430.891,146.559 452.596,141.402 477.079,141.402C501.561,141.402 523.267,146.559 542.195,156.874C561.124,167.188 575.859,181.583 586.4,200.058C596.941,218.533 602.212,239.786 602.212,263.815C602.212,287.39 596.941,308.416 586.4,326.891C575.859,345.366 561.067,359.818 542.025,370.246C522.983,380.673 501.335,385.887 477.079,385.887C452.596,385.887 430.891,380.673 411.962,370.246C393.033,359.818 378.299,345.366 367.758,326.891C362.393,317.489 358.394,307.426 355.759,296.703C355.497,296.722 355.233,296.732 354.966,296.732L312.684,296.732C306.85,296.732 302.114,291.996 302.114,286.162C302.114,280.328 306.85,275.592 312.684,275.592ZM418.932,276.221C414.574,276.221 411.038,279.759 411.038,284.115C411.038,288.472 414.575,292.01 418.932,292.01L432.395,292.01C432.559,292.01 432.722,292.005 432.883,291.995C435.073,297.694 438.017,302.809 441.715,307.339C450.783,318.447 462.571,324.001 477.079,324.001C491.36,324.001 503.091,318.447 512.272,307.339C521.453,296.231 526.044,281.61 526.044,263.475C526.044,251.46 523.947,240.749 519.753,231.341C515.559,221.934 509.722,214.566 502.241,209.239C494.761,203.912 486.26,201.248 476.739,201.248C474.386,201.248 472.091,201.419 469.855,201.76C469.634,201.742 469.411,201.732 469.184,201.732L403.68,201.732C399.322,201.733 395.785,205.27 395.785,209.627C395.785,213.983 399.322,217.521 403.68,217.521L442.634,217.521C439.307,221.495 436.507,226.102 434.234,231.341C432.62,235.062 431.326,238.987 430.35,243.117L411.23,243.117C406.872,243.118 403.336,246.655 403.336,251.011C403.336,255.368 406.872,258.905 411.23,258.906L428.215,258.906C428.147,260.408 428.114,261.93 428.114,263.475C428.114,267.936 428.388,272.184 428.937,276.221L418.932,276.221Z" style="stroke:white;stroke-width:1px;stroke-miterlimit:2;"/>
    </g>
    <path d="M779.284,53.813L768.803,36.649C768.803,36.649 787.745,1.718 834.885,3.942C858.661,5.064 879.134,17.843 891.729,36.012L881.122,53.615C868.912,42.246 852.83,34.88 834.885,33.774C813.549,32.458 793.739,40.25 779.284,53.813Z" style="stroke:white;stroke-width:1px;stroke-miterlimit:2;"/>
    <path d="M793.576,85.027L786.034,72.675C786.034,72.675 799.666,47.537 833.59,49.137C850.701,49.945 865.434,59.141 874.498,72.217L866.865,84.884C858.078,76.703 846.504,71.402 833.59,70.606C818.235,69.659 803.979,75.266 793.576,85.027Z" style="stroke:white;stroke-width:1px;stroke-miterlimit:2;"/>
    <path d="M666.653,686.84L703.056,561.003L792.681,679.959L826.754,497.833L864.495,548.578L856.688,589.938L856.787,589.914L820.056,792.838L721.389,663.032L701.449,731.957L701.453,732.693L701.236,732.694L701.234,732.702L653.321,732.924L566.538,732.943L566.317,686.924L666.653,686.84Z" style="stroke:white;stroke-width:4.17px;stroke-miterlimit:2;"/>
</svg>
